!!!OTL: ICH HAB MIR MEIN KINDEL FEIN SCHLAFEN GELEGT
!!!ARE: Europa, Mitteleuropa, Deutschland, Schlesien
!!!SCT: K0097A
!!!YEM: Copyright 1995, estate of Helmut Schaffrath.
**kern
*ICvox
*Ivox
*M3/4
*k[f#]
*G:
{4b
=1
4dd
4b
4b
=2
4.b
8a
4a
=3
4cc
4a
4a
=4
2b}
{4b
=5
4dd
4g
4g
=6
4.b
8a
4a
=7
4cc
4f#
4f#
=8
2g}
{4d
=9
4d
4g
4g
=10
4f#
4a
4a
=11
4.a
8cc
4ee
=12
2dd}
{4b
=13
4a
4a
8b
8a
=14
4g
4g
4b
=15
4.a
8g
4f#
=16
2g}
==
!!!AGN: Kinder -, Wiegen - Lied
!!!ONB: ESAC (Essen Associative Code) Database: KINDER
!!!AMT: simple triple
!!!AIN: vox
!!!EED: Helmut Schaffrath
!!!EEV: 1.0
*-
